Simply-Black-Circles/scalable/apps/preferences-system-notifications.svg

<svg xmlns="http://www.w3.org/2000/svg" width="48" height="48" viewBox="0 0 12.7 12.7"><path fill="#1a1a1a" d="M6.344.073a6.29 6.29 0 0 0-6.29 6.29 6.29 6.29 0 0 0 6.29 6.288 6.29 6.29 0 0 0 6.29-6.289 6.29 6.29 0 0 0-6.29-6.29zm-.018.936a5.407 5.407 0 0 1 5.407 5.407 5.407 5.407 0 0 1-5.407 5.407A5.407 5.407 0 0 1 .92 6.416 5.407 5.407 0 0 1 6.326 1.01zm.023 1.008a.722.722 0 0 0-.721.722v.648a2.532 2.532 0 0 0-1.805 2.422v.905c0 .556-.152 1.102-.438 1.579l-.62 1.034a.18.18 0 0 0-.002.181.18.18 0 0 0 .156.092h6.862a.18.18 0 0 0 .154-.273l-.62-1.034a3.071 3.071 0 0 1-.438-1.58V5.81c0-1.143-.762-2.11-1.805-2.422v-.648a.723.723 0 0 0-.723-.722zM5.213 9.96c.203.426.634.723 1.136.723.503 0 .935-.297 1.138-.723H5.213z"/></svg>

<?xml version="1.0" encoding="UTF-8" standalone="no"?>
<svg
   xmlns:dc="http://purl.org/dc/elements/1.1/"
   xmlns:cc="http://creativecommons.org/ns#"
   xmlns:rdf="http://www.w3.org/1999/02/22-rdf-syntax-ns#"
   xmlns:svg="http://www.w3.org/2000/svg"
   xmlns="http://www.w3.org/2000/svg"
   xmlns:sodipodi="http://sodipodi.sourceforge.net/DTD/sodipodi-0.dtd"
   xmlns:inkscape="http://www.inkscape.org/namespaces/inkscape"
   width="48"
   height="48"
   viewBox="0 0 12.7 12.7"
   version="1.1"
   id="svg4"
   sodipodi:docname="preferences-system-notifications.svg"
   inkscape:version="0.92.4 (5da689c313, 2019-01-14)">
  <metadata
     id="metadata10">
    <rdf:RDF>
      <cc:Work
         rdf:about="">
        <dc:format>image/svg+xml</dc:format>
        <dc:type
           rdf:resource="http://purl.org/dc/dcmitype/StillImage" />
        <dc:title></dc:title>
      </cc:Work>
    </rdf:RDF>
  </metadata>
  <defs
     id="defs8" />
  <sodipodi:namedview
     pagecolor="#ffffff"
     bordercolor="#666666"
     borderopacity="1"
     objecttolerance="10"
     gridtolerance="10"
     guidetolerance="10"
     inkscape:pageopacity="0"
     inkscape:pageshadow="2"
     inkscape:window-width="1087"
     inkscape:window-height="480"
     id="namedview6"
     showgrid="false"
     inkscape:zoom="4.9166667"
     inkscape:cx="2.1355932"
     inkscape:cy="24"
     inkscape:window-x="0"
     inkscape:window-y="25"
     inkscape:window-maximized="0"
     inkscape:current-layer="svg4" />
  <path
     d="m 6.344,0.073 a 6.29,6.29 0 0 0 -6.29,6.29 6.29,6.29 0 0 0 6.29,6.288 6.29,6.29 0 0 0 6.29,-6.289 6.29,6.29 0 0 0 -6.29,-6.29 z M 6.326,1.009 A 5.407,5.407 0 0 1 11.733,6.416 5.407,5.407 0 0 1 6.326,11.823 5.407,5.407 0 0 1 0.92,6.416 5.407,5.407 0 0 1 6.326,1.01 Z M 6.349,2.017 A 0.722,0.722 0 0 0 5.628,2.739 V 3.387 A 2.532,2.532 0 0 0 3.823,5.809 v 0.905 c 0,0.556 -0.152,1.102 -0.438,1.579 L 2.765,9.327 A 0.18,0.18 0 0 0 2.763,9.508 0.18,0.18 0 0 0 2.919,9.6 H 9.781 A 0.18,0.18 0 0 0 9.935,9.327 L 9.315,8.293 A 3.071,3.071 0 0 1 8.877,6.713 V 5.81 C 8.877,4.667 8.115,3.7 7.072,3.388 V 2.74 A 0.723,0.723 0 0 0 6.349,2.018 Z M 5.213,9.96 c 0.203,0.426 0.634,0.723 1.136,0.723 0.503,0 0.935,-0.297 1.138,-0.723 z"
     id="path2"
     inkscape:connector-curvature="0"
     style="fill:#1a1a1a" />
</svg>
